Substance_Automation_Toolkit_Pro-15.0.3-2112-msvc14-x64-adobe/resources/ocio/substance/luts/logScale.spi1d
Version 1
From 0.000000 64.000000
Length 4101
Components 1
{
        0.000000
        0.107299
        0.161603
        0.198246
        0.225937
        0.248203
        0.266826
        0.282831
        0.296865
        0.309360
        0.320621
        0.330870
        0.340273
        0.348961
        0.357033
        0.364572
        0.371643
        0.378302
        0.384593
        0.390556
        0.396222
        0.401620
        0.406774
        0.411706
        0.416433
        0.420972
        0.425338
        0.429542
        0.433597
        0.437513
        0.441299
        0.444963
        0.448514
        0.451957
        0.455299
        0.458546
        0.461704
        0.464776
        0.467768
        0.470683
        0.473526
        0.476299
        0.479007
        0.481652
        0.484237
        0.486765
        0.489238
        0.491658
        0.494029
        0.496351
        0.498626
        0.500857
        0.503046
        0.505193
        0.507301
        0.509370
        0.511402
        0.513399
        0.515362
        0.517291
        0.519188
        0.521055
        0.522891
        0.524698
        0.526477
        0.528229
        0.529954
        0.531653
        0.533328
        0.534978
        0.536605
        0.538209
        0.539790
        0.541350
        0.542889
        0.544408
        0.545906
        0.547386
        0.548846
        0.550288
        0.551711
        0.553118
        0.554507
        0.555879
        0.557235
        0.558575
        0.559900
        0.561209
        0.562504
        0.563784
        0.565050
        0.566302
        0.567540
        0.568765
        0.569977
        0.571176
        0.572363
        0.573538
        0.574700
        0.575851
        0.576991
        0.578119
        0.579236
        0.580342
        0.581438
        0.582523
        0.583598
        0.584663
        0.585718
        0.586764
        0.587800
        0.588826
        0.589844
        0.590852
        0.591852
        0.592843
        0.593825
        0.594799
        0.595765
        0.596723
        0.597673
        0.598614
        0.599549
        0.600475
        0.601394
        0.602306
        0.603211
        0.604108
        0.604999
        0.605882
        0.606759
        0.607629
        0.608492
        0.609349
        0.610200
        0.611044
        0.611882
        0.612714
        0.613540
        0.614360
        0.615175
        0.615983
        0.616786
        0.617583
        0.618374
        0.619161
        0.619941
        0.620717
        0.621487
        0.622252
        0.623012
        0.623767
        0.624517
        0.625262
        0.626002
        0.626738
        0.627468
        0.628195
        0.628916
        0.629633
        0.630346
        0.631054
        0.631757
        0.632457
        0.633152
        0.633843
        0.634530
        0.635212
        0.635891
        0.636565
        0.637236
        0.637903
        0.638566
        0.639225
        0.639880
        0.640531
        0.641179
        0.641823
        0.642464
        0.643101
        0.643734
        0.644364
        0.644990
        0.645613
        0.646233
        0.646849
        0.647462
        0.648072
        0.648679
        0.649282
        0.649882
        0.650479
        0.651073
        0.651663
        0.652251
        0.652836
        0.653418
        0.653996
        0.654572
        0.655145
        0.655715
        0.656283
        0.656847
        0.657409
        0.657968
        0.658524
        0.659077
        0.659628
        0.660176
        0.660722
        0.661265
        0.661805
        0.662343
        0.662879
        0.663411
        0.663942
        0.664470
        0.664995
        0.665518
        0.666039
        0.666557
        0.667073
        0.667587
        0.668098
        0.668607
        0.669114
        0.669618
        0.670121
        0.670621
        0.671119
        0.671615
        0.672108
        0.672600
        0.673089
        0.673577
        0.674062
        0.674545
        0.675026
        0.675505
        0.675982
        0.676458
        0.676931
        0.677402
        0.677871
        0.678339
        0.678804
        0.679268
        0.679729
        0.680189
        0.680647
        0.681103
        0.681558
        0.682010
        0.682461
        0.682910
        0.683357
        0.683802
        0.684246
        0.684688
        0.685128
        0.685567
        0.686004
        0.686439
        0.686873
        0.687305
        0.687735
        0.688164
        0.688591
        0.689017
        0.689441
        0.689863
        0.690284
        0.690703
        0.691121
        0.691537
        0.691952
        0.692365
        0.692777
        0.693187
        0.693596
        0.694003
        0.694409
        0.694813
        0.695216
        0.695618
        0.696018
        0.696417
        0.696814
        0.697210
        0.697604
        0.697998
        0.698390
        0.698780
        0.699169
        0.699557
        0.699944
        0.700329
        0.700713
        0.701096
        0.701477
        0.701858
        0.702236
        0.702614
        0.702990
        0.703366
        0.703740
        0.704112
        0.704484
        0.704854
        0.705223
        0.705591
        0.705958
        0.706323
        0.706688
        0.707051
        0.707413
        0.707774
        0.708134
        0.708492
        0.708850
        0.709206
        0.709562
        0.709916
        0.710269
        0.710621
        0.710972
        0.711322
        0.711670
        0.712018
        0.712365
        0.712710
        0.713055
        0.713398
        0.713741
        0.714082
        0.714423
        0.714762
        0.715101
        0.715438
        0.715775
        0.716110
        0.716445
        0.716778
        0.717111
        0.717442
        0.717773
        0.718102
        0.718431
        0.718759
        0.719086
        0.719411
        0.719736
        0.720060
        0.720384
        0.720706
        0.721027
        0.721347
        0.721667
        0.721985
        0.722303
        0.722620
        0.722936
        0.723251
        0.723565
        0.723879
        0.724191
        0.724503
        0.724813
        0.725123
        0.725432
        0.725741
        0.726048
        0.726355
        0.726661
        0.726966
        0.727270
        0.727573
        0.727876
        0.728177
        0.728478
        0.728778
        0.729078
        0.729376
        0.729674
        0.729971
        0.730267
        0.730563
        0.730858
        0.731152
        0.731445
        0.731737
        0.732029
        0.732320
        0.732610
        0.732900
        0.733188
        0.733476
        0.733764
        0.734050
        0.734336
        0.734621
        0.734906
        0.735190
        0.735473
        0.735755
        0.736037
        0.736317
        0.736598
        0.736877
        0.737156
        0.737434
        0.737712
        0.737989
        0.738265
        0.738540
        0.738815
        0.739089
        0.739363
        0.739636
        0.739908
        0.740180
        0.740451
        0.740721
        0.740991
        0.741260
        0.741528
        0.741796
        0.742063
        0.742329
        0.742595
        0.742860
        0.743125
        0.743389
        0.743653
        0.743915
        0.744178
        0.744439
        0.744700
        0.744961
        0.745221
        0.745480
        0.745738
        0.745996
        0.746254
        0.746511
        0.746767
        0.747023
        0.747278
        0.747533
        0.747787
        0.748040
        0.748293
        0.748545
        0.748797
        0.749049
        0.749299
        0.749549
        0.749799
        0.750048
        0.750297
        0.750544
        0.750792
        0.751039
        0.751285
        0.751531
        0.751776
        0.752021
        0.752265
        0.752509
        0.752752
        0.752995
        0.753237
        0.753479
        0.753720
        0.753961
        0.754201
        0.754440
        0.754680
        0.754918
        0.755156
        0.755394
        0.755631
        0.755868
        0.756104
        0.756340
        0.756575
        0.756809
        0.757044
        0.757277
        0.757511
        0.757744
        0.757976
        0.758208
        0.758439
        0.758670
        0.758900
        0.759130
        0.759360
        0.759589
        0.759818
        0.760046
        0.760273
        0.760501
        0.760727
        0.760954
        0.761180
        0.761405
        0.761630
        0.761855
        0.762079
        0.762302
        0.762526
        0.762748
        0.762971
        0.763193
        0.763414
        0.763635
        0.763856
        0.764076
        0.764296
        0.764515
        0.764734
        0.764953
        0.765171
        0.765388
        0.765606
        0.765823
        0.766039
        0.766255
        0.766471
        0.766686
        0.766901
        0.767115
        0.767329
        0.767543
        0.767756
        0.767969
        0.768181
        0.768393
        0.768605
        0.768816
        0.769027
        0.769237
        0.769448
        0.769657
        0.769867
        0.770075
        0.770284
        0.770492
        0.770700
        0.770907
        0.771114
        0.771321
        0.771527
        0.771733
        0.771939
        0.772144
        0.772349
        0.772553
        0.772757
        0.772961
        0.773164
        0.773367
        0.773570
        0.773772
        0.773974
        0.774176
        0.774377
        0.774578
        0.774778
        0.774978
        0.775178
        0.775377
        0.775576
        0.775775
        0.775974
        0.776172
        0.776369
        0.776567
        0.776764
        0.776960
        0.777157
        0.777353
        0.777548
        0.777744
        0.777939
        0.778133
        0.778328
        0.778522
        0.778715
        0.778909
        0.779102
        0.779294
        0.779487
        0.779679
        0.779871
        0.780062
        0.780253
        0.780444
        0.780634
        0.780824
        0.781014
        0.781204
        0.781393
        0.781582
        0.781770
        0.781958
        0.782146
        0.782334
        0.782521
        0.782708
        0.782895
        0.783081
        0.783268
        0.783453
        0.783639
        0.783824
        0.784009
        0.784193
        0.784378
        0.784562
        0.784745
        0.784929
        0.785112
        0.785295
        0.785477
        0.785659
        0.785841
        0.786023
        0.786204
        0.786385
        0.786566
        0.786747
        0.786927
        0.787107
        0.787287
        0.787466
        0.787645
        0.787824
        0.788002
        0.788181
        0.788359
        0.788536
        0.788714
        0.788891
        0.789068
        0.789244
        0.789421
        0.789597
        0.789772
        0.789948
        0.790123
        0.790298
        0.790473
        0.790647
        0.790821
        0.790995
        0.791169
        0.791342
        0.791515
        0.791688
        0.791861
        0.792033
        0.792205
        0.792377
        0.792548
        0.792720
        0.792891
        0.793062
        0.793232
        0.793402
        0.793572
        0.793742
        0.793912
        0.794081
        0.794250
        0.794419
        0.794587
        0.794755
        0.794923
        0.795091
        0.795259
        0.795426
        0.795593
        0.795760
        0.795926
        0.796093
        0.796259
        0.796424
        0.796590
        0.796755
        0.796920
        0.797085
        0.797250
        0.797414
        0.797578
        0.797742
        0.797906
        0.798069
        0.798233
        0.798396
        0.798558
        0.798721
        0.798883
        0.799045
        0.799207
        0.799369
        0.799530
        0.799691
        0.799852
        0.800013
        0.800173
        0.800333
        0.800493
        0.800653
        0.800813
        0.800972
        0.801131
        0.801290
        0.801449
        0.801607
        0.801765
        0.801923
        0.802081
        0.802239
        0.802396
        0.802553
        0.802710
        0.802867
        0.803023
        0.803179
        0.803335
        0.803491
        0.803647
        0.803802
        0.803958
        0.804113
        0.804267
        0.804422
        0.804576
        0.804730
        0.804884
        0.805038
        0.805192
        0.805345
        0.805498
        0.805651
        0.805804
        0.805956
        0.806109
        0.806261
        0.806413
        0.806564
        0.806716
        0.806867
        0.807018
        0.807169
        0.807320
        0.807470
        0.807621
        0.807771
        0.807921
        0.808070
        0.808220
        0.808369
        0.808518
        0.808667
        0.808816
        0.808965
        0.809113
        0.809261
        0.809409
        0.809557
        0.809704
        0.809852
        0.809999
        0.810146
        0.810293
        0.810439
        0.810586
        0.810732
        0.810878
        0.811024
        0.811170
        0.811315
        0.811461
        0.811606
        0.811751
        0.811895
        0.812040
        0.812184
        0.812329
        0.812473
        0.812617
        0.812760
        0.812904
        0.813047
        0.813190
        0.813333
        0.813476
        0.813619
        0.813761
        0.813903
        0.814045
        0.814187
        0.814329
        0.814470
        0.814612
        0.814753
        0.814894
        0.815035
        0.815175
        0.815316
        0.815456
        0.815596
        0.815736
        0.815876
        0.816016
        0.816155
        0.816295
        0.816434
        0.816573
        0.816711
        0.816850
        0.816989
        0.817127
        0.817265
        0.817403
        0.817541
        0.817678
        0.817816
        0.817953
        0.818090
        0.818227
        0.818364
        0.818500
        0.818637
        0.818773
        0.818909
        0.819045
        0.819181
        0.819317
        0.819452
        0.819588
        0.819723
        0.819858
        0.819993
        0.820127
        0.820262
        0.820396
        0.820530
        0.820665
        0.820798
        0.820932
        0.821066
        0.821199
        0.821332
        0.821466
        0.821599
        0.821731
        0.821864
        0.821996
        0.822129
        0.822261
        0.822393
        0.822525
        0.822657
        0.822788
        0.822920
        0.823051
        0.823182
        0.823313
        0.823444
        0.823575
        0.823705
        0.823835
        0.823966
        0.824096
        0.824226
        0.824356
        0.824485
        0.824615
        0.824744
        0.824873
        0.825002
        0.825131
        0.825260
        0.825389
        0.825517
        0.825645
        0.825774
        0.825902
        0.826029
        0.826157
        0.826285
        0.826412
        0.826540
        0.826667
        0.826794
        0.826921
        0.827047
        0.827174
        0.827301
        0.827427
        0.827553
        0.827679
        0.827805
        0.827931
        0.828057
        0.828182
        0.828307
        0.828433
        0.828558
        0.828683
        0.828807
        0.828932
        0.829057
        0.829181
        0.829305
        0.829430
        0.829554
        0.829677
        0.829801
        0.829925
        0.830048
        0.830172
        0.830295
        0.830418
        0.830541
        0.830664
        0.830786
        0.830909
        0.831031
        0.831153
        0.831276
        0.831398
        0.831519
        0.831641
        0.831763
        0.831884
        0.832006
        0.832127
        0.832248
        0.832369
        0.832490
        0.832611
        0.832731
        0.832852
        0.832972
        0.833092
        0.833212
        0.833332
        0.833452
        0.833572
        0.833691
        0.833811
        0.833930
        0.834049
        0.834168
        0.834287
        0.834406
        0.834525
        0.834644
        0.834762
        0.834880
        0.834999
        0.835117
        0.835235
        0.835353
        0.835470
        0.835588
        0.835705
        0.835823
        0.835940
        0.836057
        0.836174
        0.836291
        0.836408
        0.836524
        0.836641
        0.836757
        0.836874
        0.836990
        0.837106
        0.837222
        0.837338
        0.837453
        0.837569
        0.837684
        0.837800
        0.837915
        0.838030
        0.838145
        0.838260
        0.838375
        0.838489
        0.838604
        0.838718
        0.838833
        0.838947
        0.839061
        0.839175
        0.839289
        0.839403
        0.839516
        0.839630
        0.839743
        0.839856
        0.839970
        0.840083
        0.840196
        0.840308
        0.840421
        0.840534
        0.840646
        0.840759
        0.840871
        0.840983
        0.841095
        0.841207
        0.841319
        0.841431
        0.841542
        0.841654
        0.841765
        0.841877
        0.841988
        0.842099
        0.842210
        0.842321
        0.842432
        0.842542
        0.842653
        0.842763
        0.842874
        0.842984
        0.843094
        0.843204
        0.843314
        0.843424
        0.843533
        0.843643
        0.843752
        0.843862
        0.843971
        0.844080
        0.844189
        0.844298
        0.844407
        0.844516
        0.844625
        0.844733
        0.844842
        0.844950
        0.845058
        0.845166
        0.845274
        0.845382
        0.845490
        0.845598
        0.845705
        0.845813
        0.845920
        0.846028
        0.846135
        0.846242
        0.846349
        0.846456
        0.846563
        0.846670
        0.846776
        0.846883
        0.846989
        0.847095
        0.847202
        0.847308
        0.847414
        0.847520
        0.847626
        0.847731
        0.847837
        0.847942
        0.848048
        0.848153
        0.848258
        0.848364
        0.848469
        0.848574
        0.848678
        0.848783
        0.848888
        0.848992
        0.849097
        0.849201
        0.849306
        0.849410
        0.849514
        0.849618
        0.849722
        0.849826
        0.849929
        0.850033
        0.850136
        0.850240
        0.850343
        0.850446
        0.850550
        0.850653
        0.850756
        0.850859
        0.850961
        0.851064
        0.851167
        0.851269
        0.851372
        0.851474
        0.851576
        0.851678
        0.851780
        0.851882
        0.851984
        0.852086
        0.852188
        0.852289
        0.852391
        0.852492
        0.852593
        0.852695
        0.852796
        0.852897
        0.852998
        0.853099
        0.853199
        0.853300
        0.853401
        0.853501
        0.853602
        0.853702
        0.853802
        0.853902
        0.854002
        0.854102
        0.854202
        0.854302
        0.854402
        0.854502
        0.854601
        0.854701
        0.854800
        0.854899
        0.854998
        0.855098
        0.855197
        0.855296
        0.855394
        0.855493
        0.855592
        0.855690
        0.855789
        0.855887
        0.855986
        0.856084
        0.856182
        0.856280
        0.856378
        0.856476
        0.856574
        0.856672
        0.856770
        0.856867
        0.856965
        0.857062
        0.857159
        0.857257
        0.857354
        0.857451
        0.857548
        0.857645
        0.857742
        0.857838
        0.857935
        0.858032
        0.858128
        0.858225
        0.858321
        0.858417
        0.858514
        0.858610
        0.858706
        0.858802
        0.858898
        0.858993
        0.859089
        0.859185
        0.859280
        0.859376
        0.859471
        0.859566
        0.859662
        0.859757
        0.859852
        0.859947
        0.860042
        0.860137
        0.860231
        0.860326
        0.860421
        0.860515
        0.860610
        0.860704
        0.860798
        0.860892
        0.860987
        0.861081
        0.861175
        0.861268
        0.861362
        0.861456
        0.861550
        0.861643
        0.861737
        0.861830
        0.861924
        0.862017
        0.862110
        0.862203
        0.862296
        0.862389
        0.862482
        0.862575
        0.862668
        0.862760
        0.862853
        0.862946
        0.863038
        0.863130
        0.863223
        0.863315
        0.863407
        0.863499
        0.863591
        0.863683
        0.863775
        0.863867
        0.863958
        0.864050
        0.864142
        0.864233
        0.864325
        0.864416
        0.864507
        0.864598
        0.864690
        0.864781
        0.864872
        0.864962
        0.865053
        0.865144
        0.865235
        0.865325
        0.865416
        0.865506
        0.865597
        0.865687
        0.865777
        0.865868
        0.865958
        0.866048
        0.866138
        0.866228
        0.866317
        0.866407
        0.866497
        0.866587
        0.866676
        0.866766
        0.866855
        0.866944
        0.867034
        0.867123
        0.867212
        0.867301
        0.867390
        0.867479
        0.867568
        0.867657
        0.867745
        0.867834
        0.867922
        0.868011
        0.868099
        0.868188
        0.868276
        0.868364
        0.868452
        0.868541
        0.868629
        0.868717
        0.868804
        0.868892
        0.868980
        0.869068
        0.869155
        0.869243
        0.869330
        0.869418
        0.869505
        0.869592
        0.869680
        0.869767
        0.869854
        0.869941
        0.870028
        0.870115
        0.870202
        0.870288
        0.870375
        0.870462
        0.870548
        0.870635
        0.870721
        0.870808
        0.870894
        0.870980
        0.871066
        0.871152
        0.871238
        0.871324
        0.871410
        0.871496
        0.871582
        0.871668
        0.871753
        0.871839
        0.871924
        0.872010
        0.872095
        0.872181
        0.872266
        0.872351
        0.872436
        0.872521
        0.872606
        0.872691
        0.872776
        0.872861
        0.872946
        0.873030
        0.873115
        0.873200
        0.873284
        0.873369
        0.873453
        0.873537
        0.873622
        0.873706
        0.873790
        0.873874
        0.873958
        0.874042
        0.874126
        0.874210
        0.874293
        0.874377
        0.874461
        0.874544
        0.874628
        0.874711
        0.874795
        0.874878
        0.874961
        0.875045
        0.875128
        0.875211
        0.875294
        0.875377
        0.875460
        0.875543
        0.875625
        0.875708
        0.875791
        0.875873
        0.875956
        0.876038
        0.876121
        0.876203
        0.876286
        0.876368
        0.876450
        0.876532
        0.876614
        0.876696
        0.876778
        0.876860
        0.876942
        0.877024
        0.877105
        0.877187
        0.877269
        0.877350
        0.877432
        0.877513
        0.877595
        0.877676
        0.877757
        0.877838
        0.877920
        0.878001
