Substance_Automation_Toolkit_Pro-15.0.3-2112-msvc14-x64-adobe/resources/ocio/substance/luts/rec2020.spi1d
Version 1
From 0.000000 1.125000
Length 4101
Components 1
{
        0.000000
        0.000061
        0.000122
        0.000183
        0.000244
        0.000305
        0.000366
        0.000427
        0.000488
        0.000549
        0.000610
        0.000671
        0.000732
        0.000793
        0.000854
        0.000915
        0.000976
        0.001037
        0.001098
        0.001159
        0.001220
        0.001280
        0.001341
        0.001402
        0.001463
        0.001524
        0.001585
        0.001646
        0.001707
        0.001768
        0.001829
        0.001890
        0.001951
        0.002012
        0.002073
        0.002134
        0.002195
        0.002256
        0.002317
        0.002378
        0.002439
        0.002500
        0.002561
        0.002622
        0.002683
        0.002744
        0.002805
        0.002866
        0.002927
        0.002988
        0.003049
        0.003110
        0.003171
        0.003232
        0.003293
        0.003354
        0.003415
        0.003476
        0.003537
        0.003598
        0.003659
        0.003720
        0.003780
        0.003841
        0.003902
        0.003963
        0.004024
        0.004085
        0.004146
        0.004207
        0.004268
        0.004329
        0.004390
        0.004451
        0.004512
        0.004573
        0.004634
        0.004695
        0.004756
        0.004817
        0.004878
        0.004939
        0.005000
        0.005061
        0.005122
        0.005183
        0.005244
        0.005305
        0.005366
        0.005427
        0.005488
        0.005549
        0.005610
        0.005671
        0.005732
        0.005793
        0.005854
        0.005915
        0.005976
        0.006037
        0.006098
        0.006159
        0.006220
        0.006280
        0.006341
        0.006402
        0.006463
        0.006524
        0.006585
        0.006646
        0.006707
        0.006768
        0.006829
        0.006890
        0.006951
        0.007012
        0.007073
        0.007134
        0.007195
        0.007256
        0.007317
        0.007378
        0.007439
        0.007500
        0.007561
        0.007622
        0.007683
        0.007744
        0.007805
        0.007866
        0.007927
        0.007988
        0.008049
        0.008110
        0.008171
        0.008232
        0.008293
        0.008354
        0.008415
        0.008476
        0.008537
        0.008598
        0.008659
        0.008720
        0.008780
        0.008841
        0.008902
        0.008963
        0.009024
        0.009085
        0.009146
        0.009207
        0.009268
        0.009329
        0.009390
        0.009451
        0.009512
        0.009573
        0.009634
        0.009695
        0.009756
        0.009817
        0.009878
        0.009939
        0.010000
        0.010061
        0.010122
        0.010183
        0.010244
        0.010305
        0.010366
        0.010427
        0.010488
        0.010549
        0.010610
        0.010671
        0.010732
        0.010793
        0.010854
        0.010915
        0.010976
        0.011037
        0.011098
        0.011159
        0.011220
        0.011280
        0.011341
        0.011402
        0.011463
        0.011524
        0.011585
        0.011646
        0.011707
        0.011768
        0.011829
        0.011890
        0.011951
        0.012012
        0.012073
        0.012134
        0.012195
        0.012256
        0.012317
        0.012378
        0.012439
        0.012500
        0.012561
        0.012622
        0.012683
        0.012744
        0.012805
        0.012866
        0.012927
        0.012988
        0.013049
        0.013110
        0.013171
        0.013232
        0.013293
        0.013354
        0.013415
        0.013476
        0.013537
        0.013598
        0.013659
        0.013720
        0.013780
        0.013841
        0.013902
        0.013963
        0.014024
        0.014085
        0.014146
        0.014207
        0.014268
        0.014329
        0.014390
        0.014451
        0.014512
        0.014573
        0.014634
        0.014695
        0.014756
        0.014817
        0.014878
        0.014939
        0.015000
        0.015061
        0.015122
        0.015183
        0.015244
        0.015305
        0.015366
        0.015427
        0.015488
        0.015549
        0.015610
        0.015671
        0.015732
        0.015793
        0.015854
        0.015915
        0.015976
        0.016037
        0.016098
        0.016159
        0.016220
        0.016280
        0.016341
        0.016402
        0.016463
        0.016524
        0.016585
        0.016646
        0.016707
        0.016768
        0.016829
        0.016890
        0.016951
        0.017012
        0.017073
        0.017134
        0.017195
        0.017256
        0.017317
        0.017378
        0.017439
        0.017500
        0.017561
        0.017622
        0.017683
        0.017744
        0.017805
        0.017866
        0.017927
        0.017988
        0.018049
        0.018055
        0.018116
        0.018177
        0.018238
        0.018300
        0.018361
        0.018423
        0.018484
        0.018546
        0.018608
        0.018670
        0.018732
        0.018795
        0.018857
        0.018920
        0.018982
        0.019045
        0.019108
        0.019171
        0.019234
        0.019297
        0.019361
        0.019424
        0.019488
        0.019551
        0.019615
        0.019679
        0.019743
        0.019807
        0.019871
        0.019936
        0.020000
        0.020065
        0.020129
        0.020194
        0.020259
        0.020324
        0.020389
        0.020455
        0.020520
        0.020585
        0.020651
        0.020717
        0.020783
        0.020849
        0.020915
        0.020981
        0.021047
        0.021114
        0.021180
        0.021247
        0.021314
        0.021380
        0.021447
        0.021514
        0.021582
        0.021649
        0.021717
        0.021784
        0.021852
        0.021920
        0.021987
        0.022056
        0.022124
        0.022192
        0.022260
        0.022329
        0.022397
        0.022466
        0.022535
        0.022604
        0.022673
        0.022742
        0.022812
        0.022881
        0.022950
        0.023020
        0.023090
        0.023160
        0.023230
        0.023300
        0.023370
        0.023441
        0.023511
        0.023582
        0.023652
        0.023723
        0.023794
        0.023865
        0.023936
        0.024008
        0.024079
        0.024150
        0.024222
        0.024294
        0.024366
        0.024438
        0.024510
        0.024582
        0.024654
        0.024727
        0.024799
        0.024872
        0.024945
        0.025018
        0.025091
        0.025164
        0.025237
        0.025311
        0.025384
        0.025458
        0.025531
        0.025605
        0.025679
        0.025753
        0.025828
        0.025902
        0.025976
        0.026051
        0.026126
        0.026200
        0.026275
        0.026350
        0.026426
        0.026501
        0.026576
        0.026652
        0.026727
        0.026803
        0.026879
        0.026955
        0.027031
        0.027107
        0.027184
        0.027260
        0.027337
        0.027413
        0.027490
        0.027567
        0.027644
        0.027721
        0.027798
        0.027876
        0.027953
        0.028031
        0.028109
        0.028187
        0.028265
        0.028343
        0.028421
        0.028499
        0.028578
        0.028656
        0.028735
        0.028814
        0.028893
        0.028972
        0.029051
        0.029130
        0.029210
        0.029289
        0.029369
        0.029449
        0.029528
        0.029608
        0.029689
        0.029769
        0.029849
        0.029930
        0.030010
        0.030091
        0.030172
        0.030253
        0.030334
        0.030415
        0.030496
        0.030578
        0.030659
        0.030741
        0.030823
        0.030905
        0.030987
        0.031069
        0.031151
        0.031234
        0.031316
        0.031399
        0.031481
        0.031564
        0.031647
        0.031730
        0.031814
        0.031897
        0.031981
        0.032064
        0.032148
        0.032232
        0.032316
        0.032400
        0.032484
        0.032568
        0.032653
        0.032737
        0.032822
        0.032907
        0.032992
        0.033077
        0.033162
        0.033247
        0.033332
        0.033418
        0.033504
        0.033589
        0.033675
        0.033761
        0.033847
        0.033934
        0.034020
        0.034106
        0.034193
        0.034280
        0.034367
        0.034453
        0.034541
        0.034628
        0.034715
        0.034803
        0.034890
        0.034978
        0.035066
        0.035154
        0.035242
        0.035330
        0.035418
        0.035506
        0.035595
        0.035684
        0.035772
        0.035861
        0.035950
        0.036040
        0.036129
        0.036218
        0.036308
        0.036397
        0.036487
        0.036577
        0.036667
        0.036757
        0.036847
        0.036938
        0.037028
        0.037119
        0.037209
        0.037300
        0.037391
        0.037482
        0.037574
        0.037665
        0.037756
        0.037848
        0.037940
        0.038031
        0.038123
        0.038215
        0.038308
        0.038400
        0.038492
        0.038585
        0.038678
        0.038770
        0.038863
        0.038956
        0.039050
        0.039143
        0.039236
        0.039330
        0.039423
        0.039517
        0.039611
        0.039705
        0.039799
        0.039894
        0.039988
        0.040082
        0.040177
        0.040272
        0.040367
        0.040462
        0.040557
        0.040652
        0.040748
        0.040843
        0.040939
        0.041034
        0.041130
        0.041226
        0.041322
        0.041419
        0.041515
        0.041611
        0.041708
        0.041805
        0.041902
        0.041999
        0.042096
        0.042193
        0.042290
        0.042388
        0.042485
        0.042583
        0.042681
        0.042779
        0.042877
        0.042975
        0.043073
        0.043172
        0.043271
        0.043369
        0.043468
        0.043567
        0.043666
        0.043765
        0.043865
        0.043964
        0.044064
        0.044163
        0.044263
        0.044363
        0.044463
        0.044563
        0.044664
        0.044764
        0.044865
        0.044965
        0.045066
        0.045167
        0.045268
        0.045369
        0.045471
        0.045572
        0.045674
        0.045775
        0.045877
        0.045979
        0.046081
        0.046183
        0.046286
        0.046388
        0.046491
        0.046593
        0.046696
        0.046799
        0.046902
        0.047005
        0.047108
        0.047212
        0.047315
        0.047419
        0.047523
        0.047627
        0.047731
        0.047835
        0.047939
        0.048044
        0.048148
        0.048253
        0.048358
        0.048463
        0.048568
        0.048673
        0.048778
        0.048884
        0.048989
        0.049095
        0.049201
        0.049307
        0.049413
        0.049519
        0.049625
        0.049732
        0.049838
        0.049945
        0.050052
        0.050159
        0.050266
        0.050373
        0.050480
        0.050588
        0.050695
        0.050803
        0.050911
        0.051019
        0.051127
        0.051235
        0.051343
        0.051452
        0.051560
        0.051669
        0.051778
        0.051887
        0.051996
        0.052105
        0.052214
        0.052324
        0.052433
        0.052543
        0.052653
        0.052763
        0.052873
        0.052983
        0.053093
        0.053204
        0.053314
        0.053425
        0.053536
        0.053647
        0.053758
        0.053869
        0.053980
        0.054092
        0.054203
        0.054315
        0.054427
        0.054539
        0.054651
        0.054763
        0.054876
        0.054988
        0.055101
        0.055213
        0.055326
        0.055439
        0.055552
        0.055666
        0.055779
        0.055892
        0.056006
        0.056120
        0.056234
        0.056348
        0.056462
        0.056576
        0.056690
        0.056805
        0.056920
        0.057034
        0.057149
        0.057264
        0.057379
        0.057495
        0.057610
        0.057726
        0.057841
        0.057957
        0.058073
        0.058189
        0.058305
        0.058421
        0.058538
        0.058654
        0.058771
        0.058888
        0.059005
        0.059122
        0.059239
        0.059356
        0.059474
        0.059591
        0.059709
        0.059827
        0.059945
        0.060063
        0.060181
        0.060299
        0.060418
        0.060536
        0.060655
        0.060774
        0.060893
        0.061012
        0.061131
        0.061251
        0.061370
        0.061490
        0.061609
        0.061729
        0.061849
        0.061969
        0.062090
        0.062210
        0.062331
        0.062451
        0.062572
        0.062693
        0.062814
        0.062935
        0.063056
        0.063178
        0.063299
        0.063421
        0.063543
        0.063665
        0.063787
        0.063909
        0.064031
        0.064154
        0.064276
        0.064399
        0.064522
        0.064645
        0.064768
        0.064891
        0.065014
        0.065138
        0.065261
        0.065385
        0.065509
        0.065633
        0.065757
        0.065881
        0.066006
        0.066130
        0.066255
        0.066379
        0.066504
        0.066629
        0.066754
        0.066880
        0.067005
        0.067131
        0.067256
        0.067382
        0.067508
        0.067634
        0.067760
        0.067887
        0.068013
        0.068139
        0.068266
        0.068393
        0.068520
        0.068647
        0.068774
        0.068902
        0.069029
        0.069157
        0.069284
        0.069412
        0.069540
        0.069668
        0.069797
        0.069925
        0.070053
        0.070182
        0.070311
        0.070440
        0.070569
        0.070698
        0.070827
        0.070957
        0.071086
        0.071216
        0.071346
        0.071476
        0.071606
        0.071736
        0.071866
        0.071997
        0.072127
        0.072258
        0.072389
        0.072520
        0.072651
        0.072782
        0.072914
        0.073045
        0.073177
        0.073308
        0.073440
        0.073572
        0.073704
        0.073837
        0.073969
        0.074102
        0.074234
        0.074367
        0.074500
        0.074633
        0.074766
        0.074900
        0.075033
        0.075167
        0.075300
        0.075434
        0.075568
        0.075702
        0.075837
        0.075971
        0.076105
        0.076240
        0.076375
        0.076510
        0.076645
        0.076780
        0.076915
        0.077051
        0.077186
        0.077322
        0.077458
        0.077594
        0.077730
        0.077866
        0.078002
        0.078139
        0.078275
        0.078412
        0.078549
        0.078686
        0.078823
        0.078960
        0.079098
        0.079235
        0.079373
        0.079511
        0.079649
        0.079787
        0.079925
        0.080063
        0.080201
        0.080340
        0.080479
        0.080618
        0.080757
        0.080896
        0.081035
        0.081174
        0.081314
        0.081453
        0.081593
        0.081733
        0.081873
        0.082013
        0.082153
        0.082294
        0.082434
        0.082575
        0.082716
        0.082857
        0.082998
        0.083139
        0.083280
        0.083422
        0.083563
        0.083705
        0.083847
        0.083989
        0.084131
        0.084273
        0.084416
        0.084558
        0.084701
        0.084844
        0.084987
        0.085130
        0.085273
        0.085416
        0.085560
        0.085703
        0.085847
        0.085991
        0.086135
        0.086279
        0.086423
        0.086568
        0.086712
        0.086857
        0.087002
        0.087146
        0.087292
        0.087437
        0.087582
        0.087727
        0.087873
        0.088019
        0.088165
        0.088311
        0.088457
        0.088603
        0.088749
        0.088896
        0.089042
        0.089189
        0.089336
        0.089483
        0.089630
        0.089778
        0.089925
        0.090073
        0.090220
        0.090368
        0.090516
        0.090664
        0.090812
        0.090961
        0.091109
        0.091258
        0.091407
        0.091556
        0.091705
        0.091854
        0.092003
        0.092152
        0.092302
        0.092452
        0.092602
        0.092752
        0.092902
        0.093052
        0.093202
        0.093353
        0.093503
        0.093654
        0.093805
        0.093956
        0.094107
        0.094259
        0.094410
        0.094562
        0.094713
        0.094865
        0.095017
        0.095169
        0.095321
        0.095474
        0.095626
        0.095779
        0.095932
        0.096085
        0.096238
        0.096391
        0.096544
        0.096698
        0.096851
        0.097005
        0.097159
        0.097313
        0.097467
        0.097621
        0.097775
        0.097930
        0.098085
        0.098239
        0.098394
        0.098549
        0.098705
        0.098860
        0.099015
        0.099171
        0.099327
        0.099482
        0.099638
        0.099795
        0.099951
        0.100107
        0.100264
        0.100420
        0.100577
        0.100734
        0.100891
        0.101048
        0.101206
        0.101363
        0.101521
        0.101679
        0.101836
        0.101995
        0.102153
        0.102311
        0.102469
        0.102628
        0.102787
        0.102945
        0.103104
        0.103263
        0.103423
        0.103582
        0.103742
        0.103901
        0.104061
        0.104221
        0.104381
        0.104541
        0.104701
        0.104862
        0.105022
        0.105183
        0.105344
        0.105505
        0.105666
        0.105827
        0.105989
        0.106150
        0.106312
        0.106474
        0.106636
        0.106798
        0.106960
        0.107122
        0.107285
        0.107447
        0.107610
        0.107773
        0.107936
        0.108099
        0.108262
        0.108426
        0.108589
        0.108753
        0.108917
        0.109081
        0.109245
        0.109409
        0.109573
        0.109738
        0.109903
        0.110067
        0.110232
        0.110397
        0.110562
        0.110728
        0.110893
        0.111059
        0.111225
        0.111390
        0.111556
        0.111723
        0.111889
        0.112055
        0.112222
        0.112388
        0.112555
        0.112722
        0.112889
        0.113057
        0.113224
        0.113391
        0.113559
        0.113727
        0.113895
        0.114063
        0.114231
        0.114399
        0.114568
        0.114736
        0.114905
        0.115074
        0.115243
        0.115412
        0.115581
        0.115751
        0.115920
        0.116090
        0.116260
        0.116430
        0.116600
        0.116770
        0.116940
        0.117111
        0.117281
        0.117452
        0.117623
        0.117794
        0.117965
        0.118137
        0.118308
        0.118480
        0.118651
        0.118823
        0.118995
        0.119167
        0.119340
        0.119512
        0.119685
        0.119857
        0.120030
        0.120203
        0.120376
        0.120549
        0.120723
        0.120896
        0.121070
        0.121244
        0.121418
        0.121592
        0.121766
        0.121940
        0.122115
        0.122289
        0.122464
        0.122639
        0.122814
        0.122989
        0.123164
        0.123340
        0.123515
        0.123691
        0.123867
        0.124043
        0.124219
        0.124395
        0.124572
        0.124748
        0.124925
        0.125102
        0.125279
        0.125456
        0.125633
        0.125810
        0.125988
        0.126165
        0.126343
        0.126521
        0.126699
        0.126877
        0.127055
        0.127234
        0.127413
        0.127591
        0.127770
        0.127949
        0.128128
        0.128308
        0.128487
        0.128667
        0.128846
        0.129026
        0.129206
        0.129386
        0.129566
        0.129747
        0.129927
        0.130108
        0.130289
        0.130470
        0.130651
        0.130832
        0.131013
        0.131195
        0.131376
        0.131558
        0.131740
        0.131922
        0.132104
        0.132287
        0.132469
        0.132652
        0.132834
        0.133017
        0.133200
        0.133383
        0.133567
        0.133750
        0.133934
        0.134117
        0.134301
        0.134485
        0.134669
        0.134854
        0.135038
        0.135222
        0.135407
        0.135592
        0.135777
        0.135962
        0.136147
        0.136333
        0.136518
        0.136704
        0.136890
        0.137075
        0.137261
        0.137448
        0.137634
        0.137821
        0.138007
        0.138194
        0.138381
        0.138568
        0.138755
        0.138942
        0.139130
        0.139317
        0.139505
        0.139693
        0.139881
        0.140069
        0.140257
        0.140446
        0.140634
        0.140823
        0.141012
        0.141201
        0.141390
        0.141579
        0.141769
        0.141958
        0.142148
        0.142338
        0.142528
        0.142718
        0.142908
        0.143098
        0.143289
        0.143479
        0.143670
        0.143861
        0.144052
        0.144243
        0.144435
        0.144626
        0.144818
        0.145010
        0.145202
        0.145394
        0.145586
        0.145778
        0.145971
        0.146163
        0.146356
        0.146549
        0.146742
        0.146935
        0.147128
        0.147322
        0.147515
        0.147709
        0.147903
        0.148097
        0.148291
        0.148485
        0.148680
        0.148874
        0.149069
        0.149264
        0.149459
        0.149654
        0.149849
        0.150045
        0.150240
        0.150436
        0.150632
        0.150828
        0.151024
        0.151220
        0.151416
        0.151613
        0.151809
        0.152006
        0.152203
        0.152400
        0.152597
        0.152795
        0.152992
        0.153190
        0.153388
        0.153586
        0.153784
        0.153982
        0.154180
        0.154379
        0.154577
        0.154776
        0.154975
        0.155174
        0.155373
        0.155573
        0.155772
        0.155972
        0.156171
        0.156371
        0.156571
        0.156772
        0.156972
        0.157172
        0.157373
        0.157574
        0.157775
        0.157976
        0.158177
        0.158378
        0.158579
        0.158781
        0.158983
        0.159185
        0.159387
        0.159589
        0.159791
        0.159993
        0.160196
        0.160399
        0.160602
        0.160805
        0.161008
        0.161211
        0.161414
        0.161618
        0.161822
        0.162025
        0.162229
        0.162434
