Substance_Automation_Toolkit_Pro-15.0.3-2112-msvc14-x64-adobe/resources/ocio/substance/luts/rtt_and_odt_fit.spi1d
Version 1
From 0.000000 64.000000
Length 4101
Components 1
{
        -0.000380
        0.002190
        0.006539
        0.012489
        0.019865
        0.028501
        0.038235
        0.048916
        0.060403
        0.072566
        0.085284
        0.098450
        0.111963
        0.125738
        0.139695
        0.153764
        0.167886
        0.182005
        0.196077
        0.210062
        0.223924
        0.237636
        0.251172
        0.264514
        0.277643
        0.290548
        0.303216
        0.315641
        0.327817
        0.339739
        0.351404
        0.362813
        0.373964
        0.384859
        0.395501
        0.405891
        0.416033
        0.425932
        0.435590
        0.445013
        0.454205
        0.463171
        0.471917
        0.480448
        0.488768
        0.496884
        0.504800
        0.512522
        0.520054
        0.527403
        0.534573
        0.541570
        0.548397
        0.555061
        0.561565
        0.567915
        0.574114
        0.580167
        0.586079
        0.591853
        0.597494
        0.603005
        0.608390
        0.613653
        0.618798
        0.623827
        0.628745
        0.633554
        0.638258
        0.642859
        0.647362
        0.651767
        0.656079
        0.660299
        0.664431
        0.668477
        0.672439
        0.676320
        0.680121
        0.683846
        0.687496
        0.691073
        0.694580
        0.698018
        0.701388
        0.704694
        0.707935
        0.711115
        0.714235
        0.717297
        0.720301
        0.723249
        0.726144
        0.728986
        0.731776
        0.734516
        0.737207
        0.739850
        0.742447
        0.744999
        0.747506
        0.749970
        0.752392
        0.754773
        0.757114
        0.759415
        0.761678
        0.763904
        0.766094
        0.768248
        0.770367
        0.772451
        0.774503
        0.776522
        0.778510
        0.780466
        0.782392
        0.784289
        0.786156
        0.787995
        0.789806
        0.791590
        0.793347
        0.795078
        0.796784
        0.798465
        0.800121
        0.801753
        0.803362
        0.804948
        0.806512
        0.808053
        0.809573
        0.811072
        0.812550
        0.814008
        0.815446
        0.816864
        0.818263
        0.819644
        0.821006
        0.822350
        0.823676
        0.824985
        0.826277
        0.827552
        0.828811
        0.830053
        0.831280
        0.832492
        0.833688
        0.834869
        0.836035
        0.837188
        0.838325
        0.839449
        0.840560
        0.841657
        0.842740
        0.843811
        0.844869
        0.845915
        0.846948
        0.847969
        0.848978
        0.849976
        0.850962
        0.851937
        0.852901
        0.853854
        0.854796
        0.855727
        0.856648
        0.857559
        0.858460
        0.859351
        0.860232
        0.861104
        0.861966
        0.862819
        0.863663
        0.864498
        0.865324
        0.866141
        0.866950
        0.867750
        0.868542
        0.869325
        0.870101
        0.870869
        0.871629
        0.872381
        0.873125
        0.873862
        0.874592
        0.875314
        0.876030
        0.876738
        0.877439
        0.878134
        0.878821
        0.879502
        0.880177
        0.880845
        0.881506
        0.882161
        0.882810
        0.883453
        0.884090
        0.884721
        0.885346
        0.885966
        0.886579
        0.887187
        0.887790
        0.888386
        0.888978
        0.889564
        0.890145
        0.890721
        0.891291
        0.891857
        0.892417
        0.892973
        0.893524
        0.894070
        0.894611
        0.895147
        0.895679
        0.896206
        0.896729
        0.897248
        0.897761
        0.898271
        0.898776
        0.899278
        0.899774
        0.900267
        0.900756
        0.901241
        0.901721
        0.902198
        0.902671
        0.903140
        0.903605
        0.904067
        0.904525
        0.904979
        0.905429
        0.905876
        0.906320
        0.906760
        0.907196
        0.907629
        0.908059
        0.908485
        0.908909
        0.909328
        0.909745
        0.910158
        0.910569
        0.910976
        0.911380
        0.911781
        0.912179
        0.912574
        0.912966
        0.913356
        0.913742
        0.914125
        0.914506
        0.914884
        0.915259
        0.915632
        0.916001
        0.916368
        0.916733
        0.917095
        0.917454
        0.917811
        0.918165
        0.918516
        0.918866
        0.919212
        0.919557
        0.919898
        0.920238
        0.920575
        0.920910
        0.921243
        0.921573
        0.921901
        0.922227
        0.922550
        0.922872
        0.923191
        0.923508
        0.923823
        0.924136
        0.924446
        0.924755
        0.925062
        0.925366
        0.925669
        0.925970
        0.926268
        0.926565
        0.926860
        0.927153
        0.927444
        0.927733
        0.928020
        0.928306
        0.928589
        0.928871
        0.929151
        0.929430
        0.929706
        0.929981
        0.930254
        0.930525
        0.930795
        0.931063
        0.931330
        0.931594
        0.931857
        0.932119
        0.932379
        0.932637
        0.932894
        0.933149
        0.933403
        0.933655
        0.933906
        0.934155
        0.934402
        0.934649
        0.934893
        0.935137
        0.935378
        0.935619
        0.935858
        0.936096
        0.936332
        0.936567
        0.936800
        0.937032
        0.937263
        0.937493
        0.937721
        0.937948
        0.938173
        0.938398
        0.938621
        0.938842
        0.939063
        0.939282
        0.939500
        0.939717
        0.939933
        0.940147
        0.940360
        0.940572
        0.940783
        0.940993
        0.941202
        0.941409
        0.941615
        0.941821
        0.942025
        0.942228
        0.942430
        0.942630
        0.942830
        0.943029
        0.943226
        0.943423
        0.943618
        0.943813
        0.944006
        0.944199
        0.944390
        0.944581
        0.944770
        0.944958
        0.945146
        0.945332
        0.945518
        0.945702
        0.945886
        0.946069
        0.946250
        0.946431
        0.946611
        0.946790
        0.946968
        0.947145
        0.947321
        0.947497
        0.947671
        0.947845
        0.948018
        0.948189
        0.948360
        0.948531
        0.948700
        0.948868
        0.949036
        0.949203
        0.949369
        0.949534
        0.949699
        0.949862
        0.950025
        0.950187
        0.950348
        0.950509
        0.950668
        0.950827
        0.950986
        0.951143
        0.951300
        0.951456
        0.951611
        0.951765
        0.951919
        0.952072
        0.952224
        0.952376
        0.952527
        0.952677
        0.952826
        0.952975
        0.953123
        0.953270
        0.953417
        0.953563
        0.953709
        0.953853
        0.953997
        0.954141
        0.954283
        0.954425
        0.954567
        0.954708
        0.954848
        0.954987
        0.955126
        0.955264
        0.955402
        0.955539
        0.955676
        0.955811
        0.955947
        0.956081
        0.956215
        0.956349
        0.956482
        0.956614
        0.956746
        0.956877
        0.957007
        0.957137
        0.957267
        0.957396
        0.957524
        0.957652
        0.957779
        0.957905
        0.958032
        0.958157
        0.958282
        0.958407
        0.958531
        0.958654
        0.958777
        0.958900
        0.959021
        0.959143
        0.959264
        0.959384
        0.959504
        0.959623
        0.959742
        0.959861
        0.959978
        0.960096
        0.960213
        0.960329
        0.960445
        0.960561
        0.960676
        0.960790
        0.960904
        0.961018
        0.961131
        0.961244
        0.961356
        0.961468
        0.961579
        0.961690
        0.961800
        0.961910
        0.962020
        0.962129
        0.962238
        0.962346
        0.962454
        0.962561
        0.962668
        0.962775
        0.962881
        0.962987
        0.963092
        0.963197
        0.963301
        0.963405
        0.963509
        0.963612
        0.963715
        0.963818
        0.963920
        0.964022
        0.964123
        0.964224
        0.964324
        0.964424
        0.964524
        0.964624
        0.964723
        0.964821
        0.964919
        0.965017
        0.965115
        0.965212
        0.965309
        0.965405
        0.965501
        0.965597
        0.965692
        0.965787
        0.965882
        0.965976
        0.966070
        0.966164
        0.966257
        0.966350
        0.966442
        0.966535
        0.966626
        0.966718
        0.966809
        0.966900
        0.966991
        0.967081
        0.967171
        0.967260
        0.967350
        0.967438
        0.967527
        0.967615
        0.967703
        0.967791
        0.967878
        0.967965
        0.968052
        0.968138
        0.968225
        0.968310
        0.968396
        0.968481
        0.968566
        0.968651
        0.968735
        0.968819
        0.968903
        0.968986
        0.969069
        0.969152
        0.969234
        0.969317
        0.969399
        0.969480
        0.969562
        0.969643
        0.969724
        0.969804
        0.969885
        0.969965
        0.970044
        0.970124
        0.970203
        0.970282
        0.970361
        0.970439
        0.970517
        0.970595
        0.970673
        0.970750
        0.970827
        0.970904
        0.970981
        0.971057
        0.971133
        0.971209
        0.971284
        0.971360
        0.971435
        0.971510
        0.971584
        0.971659
        0.971733
        0.971807
        0.971880
        0.971953
        0.972027
        0.972099
        0.972172
        0.972244
        0.972317
        0.972389
        0.972460
        0.972532
        0.972603
        0.972674
        0.972745
        0.972815
        0.972886
        0.972956
        0.973026
        0.973095
        0.973165
        0.973234
        0.973303
        0.973372
        0.973440
        0.973509
        0.973577
        0.973645
        0.973712
        0.973780
        0.973847
        0.973914
        0.973981
        0.974048
        0.974114
        0.974180
        0.974246
        0.974312
        0.974378
        0.974443
        0.974508
        0.974573
        0.974638
        0.974703
        0.974767
        0.974831
        0.974895
        0.974959
        0.975023
        0.975086
        0.975149
        0.975212
        0.975275
        0.975338
        0.975400
        0.975463
        0.975525
        0.975587
        0.975648
        0.975710
        0.975771
        0.975832
        0.975893
        0.975954
        0.976015
        0.976075
        0.976136
        0.976196
        0.976256
        0.976315
        0.976375
        0.976434
        0.976493
        0.976552
        0.976611
        0.976670
        0.976728
        0.976787
        0.976845
        0.976903
        0.976961
        0.977018
        0.977076
        0.977133
        0.977190
        0.977247
        0.977304
        0.977361
        0.977417
        0.977474
        0.977530
        0.977586
        0.977642
        0.977698
        0.977753
        0.977808
        0.977864
        0.977919
        0.977974
        0.978028
        0.978083
        0.978137
        0.978192
        0.978246
        0.978300
        0.978354
        0.978407
        0.978461
        0.978514
        0.978568
        0.978621
        0.978674
        0.978726
        0.978779
        0.978832
        0.978884
        0.978936
        0.978988
        0.979040
        0.979092
        0.979143
        0.979195
        0.979246
        0.979298
        0.979349
        0.979400
        0.979450
        0.979501
        0.979551
        0.979602
        0.979652
        0.979702
        0.979752
        0.979802
        0.979852
        0.979901
        0.979951
        0.980000
        0.980049
        0.980098
        0.980147
        0.980196
        0.980245
        0.980293
        0.980341
        0.980390
        0.980438
        0.980486
        0.980534
        0.980581
        0.980629
        0.980677
        0.980724
        0.980771
        0.980818
        0.980865
        0.980912
        0.980959
        0.981006
        0.981052
        0.981098
        0.981145
        0.981191
        0.981237
        0.981283
        0.981329
        0.981374
        0.981420
        0.981465
        0.981511
        0.981556
        0.981601
        0.981646
        0.981691
        0.981735
        0.981780
        0.981824
        0.981869
        0.981913
        0.981957
        0.982001
        0.982045
        0.982089
        0.982133
        0.982176
        0.982220
        0.982263
        0.982307
        0.982350
        0.982393
        0.982436
        0.982479
        0.982521
        0.982564
        0.982607
        0.982649
        0.982691
        0.982733
        0.982776
        0.982818
        0.982859
        0.982901
        0.982943
        0.982985
        0.983026
        0.983067
        0.983109
        0.983150
        0.983191
        0.983232
        0.983273
        0.983314
        0.983354
        0.983395
        0.983435
        0.983476
        0.983516
        0.983556
        0.983596
        0.983636
        0.983676
        0.983716
        0.983756
        0.983795
        0.983835
        0.983874
        0.983913
        0.983953
        0.983992
        0.984031
        0.984070
        0.984109
        0.984147
        0.984186
        0.984225
        0.984263
        0.984301
        0.984340
        0.984378
        0.984416
        0.984454
        0.984492
        0.984530
        0.984568
        0.984605
        0.984643
        0.984680
        0.984718
        0.984755
        0.984792
        0.984829
        0.984867
        0.984903
        0.984940
        0.984977
        0.985014
        0.985051
        0.985087
        0.985124
        0.985160
        0.985196
        0.985232
        0.985268
        0.985305
        0.985340
        0.985376
        0.985412
        0.985448
        0.985483
        0.985519
        0.985555
        0.985590
        0.985625
        0.985660
        0.985696
        0.985731
        0.985766
        0.985801
        0.985835
        0.985870
        0.985905
        0.985939
        0.985974
        0.986008
        0.986043
        0.986077
        0.986111
        0.986145
        0.986179
        0.986213
        0.986247
        0.986281
        0.986315
        0.986348
        0.986382
        0.986416
        0.986449
        0.986482
        0.986516
        0.986549
        0.986582
        0.986615
        0.986648
        0.986681
        0.986714
        0.986747
        0.986779
        0.986812
        0.986845
        0.986877
        0.986910
        0.986942
        0.986974
        0.987006
        0.987039
        0.987071
        0.987103
        0.987135
        0.987167
        0.987198
        0.987230
        0.987262
        0.987293
        0.987325
        0.987356
        0.987388
        0.987419
        0.987450
        0.987482
        0.987513
        0.987544
        0.987575
        0.987606
        0.987636
        0.987667
        0.987698
        0.987729
        0.987759
        0.987790
        0.987820
        0.987851
        0.987881
        0.987911
        0.987942
        0.987972
        0.988002
        0.988032
        0.988062
        0.988092
        0.988121
        0.988151
        0.988181
        0.988211
        0.988240
        0.988270
        0.988299
        0.988329
        0.988358
        0.988387
        0.988416
        0.988446
        0.988475
        0.988504
        0.988533
        0.988562
        0.988591
        0.988619
        0.988648
        0.988677
        0.988705
        0.988734
        0.988762
        0.988791
        0.988819
        0.988848
        0.988876
        0.988904
        0.988932
        0.988960
        0.988988
        0.989016
        0.989044
        0.989072
        0.989100
        0.989128
        0.989155
        0.989183
        0.989211
        0.989238
        0.989266
        0.989293
        0.989321
        0.989348
        0.989375
        0.989402
        0.989429
        0.989457
        0.989484
        0.989511
        0.989538
        0.989564
        0.989591
        0.989618
        0.989645
        0.989671
        0.989698
        0.989725
        0.989751
        0.989778
        0.989804
        0.989830
        0.989857
        0.989883
        0.989909
        0.989935
        0.989961
        0.989987
        0.990013
        0.990039
        0.990065
        0.990091
        0.990117
        0.990143
        0.990168
        0.990194
        0.990220
        0.990245
        0.990271
        0.990296
        0.990322
        0.990347
        0.990372
        0.990397
        0.990423
        0.990448
        0.990473
        0.990498
        0.990523
        0.990548
        0.990573
        0.990598
        0.990623
        0.990647
        0.990672
        0.990697
        0.990721
        0.990746
        0.990770
        0.990795
        0.990819
        0.990844
        0.990868
        0.990892
        0.990917
        0.990941
        0.990965
        0.990989
        0.991013
        0.991037
        0.991061
        0.991085
        0.991109
        0.991133
        0.991157
        0.991181
        0.991204
        0.991228
        0.991252
        0.991275
        0.991299
        0.991322
        0.991346
        0.991369
        0.991392
        0.991416
        0.991439
        0.991462
        0.991485
        0.991509
        0.991532
        0.991555
        0.991578
        0.991601
        0.991624
        0.991647
        0.991669
        0.991692
        0.991715
        0.991738
        0.991760
        0.991783
        0.991806
        0.991828
        0.991851
        0.991873
        0.991896
        0.991918
        0.991941
        0.991963
        0.991985
        0.992007
        0.992030
        0.992052
        0.992074
        0.992096
        0.992118
        0.992140
        0.992162
        0.992184
        0.992206
        0.992228
        0.992249
        0.992271
        0.992293
        0.992315
        0.992336
        0.992358
        0.992379
        0.992401
        0.992422
        0.992444
        0.992465
        0.992487
        0.992508
        0.992529
        0.992551
        0.992572
        0.992593
        0.992614
        0.992635
        0.992656
        0.992677
        0.992698
        0.992719
        0.992740
        0.992761
        0.992782
        0.992803
        0.992824
        0.992844
        0.992865
        0.992886
        0.992906
        0.992927
        0.992948
        0.992968
        0.992989
        0.993009
        0.993029
        0.993050
        0.993070
        0.993091
        0.993111
        0.993131
        0.993151
        0.993171
        0.993192
        0.993212
        0.993232
        0.993252
        0.993272
        0.993292
        0.993312
        0.993332
        0.993351
        0.993371
        0.993391
        0.993411
        0.993431
        0.993450
        0.993470
        0.993490
        0.993509
        0.993529
        0.993548
        0.993568
        0.993587
        0.993607
        0.993626
        0.993646
        0.993665
        0.993684
        0.993703
        0.993723
        0.993742
        0.993761
        0.993780
        0.993799
        0.993818
        0.993837
        0.993856
        0.993875
        0.993894
        0.993913
        0.993932
        0.993951
        0.993970
        0.993989
        0.994007
        0.994026
        0.994045
        0.994064
        0.994082
        0.994101
        0.994119
        0.994138
        0.994156
        0.994175
        0.994193
        0.994212
        0.994230
        0.994249
        0.994267
        0.994285
        0.994303
        0.994322
        0.994340
        0.994358
        0.994376
        0.994394
        0.994412
        0.994430
        0.994449
        0.994467
        0.994485
        0.994502
        0.994520
        0.994538
        0.994556
        0.994574
        0.994592
        0.994610
        0.994627
        0.994645
        0.994663
        0.994680
        0.994698
        0.994716
        0.994733
        0.994751
        0.994768
        0.994786
        0.994803
        0.994821
        0.994838
        0.994855
        0.994873
        0.994890
        0.994907
        0.994925
        0.994942
        0.994959
        0.994976
        0.994993
        0.995011
        0.995028
        0.995045
        0.995062
        0.995079
        0.995096
        0.995113
        0.995130
        0.995147
        0.995163
        0.995180
        0.995197
        0.995214
        0.995231
        0.995248
        0.995264
        0.995281
        0.995298
        0.995314
        0.995331
        0.995347
        0.995364
        0.995381
        0.995397
        0.995414
        0.995430
        0.995447
        0.995463
        0.995479
        0.995496
        0.995512
        0.995528
        0.995545
        0.995561
        0.995577
        0.995593
        0.995610
        0.995626
        0.995642
        0.995658
        0.995674
        0.995690
        0.995706
        0.995722
        0.995738
        0.995754
        0.995770
        0.995786
        0.995802
        0.995818
        0.995834
        0.995849
        0.995865
        0.995881
        0.995897
        0.995912
        0.995928
        0.995944
        0.995960
        0.995975
        0.995991
        0.996006
        0.996022
        0.996037
        0.996053
        0.996068
        0.996084
        0.996099
        0.996115
        0.996130
        0.996146
        0.996161
        0.996176
        0.996191
        0.996207
        0.996222
        0.996237
        0.996252
        0.996268
        0.996283
        0.996298
        0.996313
        0.996328
        0.996343
        0.996358
        0.996373
        0.996388
        0.996403
        0.996418
        0.996433
        0.996448
        0.996463
        0.996478
        0.996493
        0.996508
        0.996522
        0.996537
        0.996552
        0.996567
        0.996581
        0.996596
        0.996611
        0.996625
        0.996640
        0.996655
        0.996669
        0.996684
        0.996698
        0.996713
        0.996727
        0.996742
        0.996756
        0.996771
        0.996785
        0.996800
        0.996814
        0.996828
        0.996843
        0.996857
        0.996871
        0.996886
        0.996900
        0.996914
        0.996928
        0.996943
        0.996957
        0.996971
        0.996985
        0.996999
        0.997013
        0.997027
        0.997041
        0.997055
        0.997069
        0.997083
        0.997097
        0.997111
        0.997125
        0.997139
        0.997153
        0.997167
        0.997181
        0.997195
